X: 19720
T: Jenny Nettle's Fancy
R: reel
M: 4/4
K: Bminor
a2 fd Adfd|(3Bcd ef g2 fg|a2 fd Adfd|eaag fd d2|
a2 fd Adfd|(3Bcd ef g2 fg|a2 fd Adfd|eage fd d2||
B3c dBAF|B3c dfec|B3c dBAg|fdec Bcdf|
B2c dBAF|B3c dfec|B3c dBAg|fdec defg||

